X: 94
T: No_18_Third_Song.krn
N: Derived from No_18_Third_Song.krn
%%abc-version 2.0
%%abcx-abcm2ps-target-version 5.9.1 (29 Sep 2008)
%%abc-creator hum2abc beta
%%abcx-conversion-date 2019/03/15 08:29:13
%%humdrum-veritas 4043362419
%%humdrum-veritas-data 3115934466
%%linebreak <none>
%%barnumbers 0
L: 1/8
M: 3/4
%%staves {1 2}
V: 1 clef=bass
V: 2 clef=bass
K: F
[V:1] DD3/D/ [I:setbarnb 1]| 
[V:2] z3 | 
[V:1] D3/D/ D3/D/ C3/C/ | 
[V:2] G,,G,, G,,G,, G,,G,, | 
[V:1] A,3C C3/C/ ||  
[V:2] z6 ||  
[V:1] [M:4/4]C3C C3/C/C3/C/ ||  
[V:2] [M:4/4]z8 ||  
[V:1] [M:3/4]A,3A, A,3/A,/ | 
[V:2] [M:3/4]z6 | 
[V:1] G,4F,3/D,/ | 
[V:2] z6 | 
[V:1] D,3F,F,2 | 
[V:2] z6 | 
[V:1] G,3A, A,3/A,/ | 
[V:2] z6 | 
[V:1] G,4F,3/D,/ | 
[V:2] z6 | 
[V:1] D,3F,F,2 | 
[V:2] z6 | 
[V:1] D,4D,3/D,/ | 
[V:2] z6 | 
[V:1] D,4A,3/A,/ | 
[V:2] z6 | 
[V:1] A,A,/A,/ A,3/A,/A,2 | 
[V:2] z6 | 
[V:1] A,3/A,/ A,3/B,/ A,A,/A,/ | 
[V:2] z6 | 
[V:1] G,4F,3/D,/ | 
[V:2] z6 | 
[V:1] [M:3/8]D,3 |]  
[V:2] [M:3/8]z3 |]  



